icons/outline/basket-cog.svg

<!--
category: E-commerce
tags: [shopping, cart, settings, configuration, gear, store, purchase, goods, buy, mechanism]
version: "2.28"
unicode: "fb47"
-->
<svg
  xmlns="http://www.w3.org/2000/svg"
  width="24"
  height="24"
  viewBox="0 0 24 24"
  fill="none"
  stroke="currentColor"
  stroke-width="2"
  stroke-linecap="round"
  stroke-linejoin="round"
>
  <path d="M17 10l-2 -6m-8 6l2 -6m3 16h-4.756a3 3 0 0 1 -2.965 -2.544l-1.255 -7.152a2 2 0 0 1 1.977 -2.304h13.999a2 2 0 0 1 1.977 2.304l-.267 1.522m-10.71 2.174a2 2 0 1 0 4 0a2 2 0 0 0 -4 0m9.001 5m-2 0a2 2 0 1 0 4 0a2 2 0 1 0 -4 0m2 -3.5v1.5m0 4v1.5m3.031 -5.25l-1.299 .75m-3.463 2l-1.3 .75m0 -3.5l1.3 .75m3.463 2l1.3 .75" />
</svg>

<!--
category: E-commerce
tags: [shopping, cart, settings, configuration, gear, store, purchase, goods, buy, mechanism]
version: "2.28"
unicode: "fb47"
-->
<svg
  xmlns="http://www.w3.org/2000/svg"
  width="24"
  height="24"
  viewBox="0 0 24 24"
  fill="none"
  stroke="currentColor"
  stroke-width="2"
  stroke-linecap="round"
  stroke-linejoin="round"
>
    <path d="M17 10l-2 -6M7 10l2 -6M12 20h-4.756a3 3 0 0 1 -2.965 -2.544l-1.255 -7.152a2 2 0 0 1 1.977 -2.304h13.999a2 2 0 0 1 1.977 2.304l-.267 1.522M10 14a2 2 0 1 0 4 0a2 2 0 0 0 -4 0M19.001 19m-2 0a2 2 0 1 0 4 0a2 2 0 1 0 -4 0M19.001 15.5v1.5M19.001 21v1.5M22.032 17.25l-1.299 .75M17.27 20l-1.3 .75M15.97 17.25l1.3 .75M20.733 20l1.3 .75" />
</svg>
